!!!COM: Anon.
!!!OTL: Pa~-an, pa~-an, pa~-an
!!!OTL: Romanceiro Folclorico do Brasil
!!!CNT: Brasil
!!!OCY: Brasil
!!!ODT: <1971///
!!!PSR: Irmaos Vitale
!!!PSP: Sao Paulo, Brasil
!!!PDT: 1950///
!!!PPE: Rossini Tavares de Lima
!!!PPG: page 55
!! Romance: Cego Ou Ceguinho
!! Place: Sao Simao, Sao Paulo, Brasil
**kern
*clefG2
*k[]
*M2/4
*MM116
=1-
8e
8cc
8cc
8b
=
4f
8.d
16d
=
8d
8b
8b
8a
=
4e
4c
=
8e
8g
8f
8e
=
4d
4B
=
16d
16d
16f
16f
8e
8d
=
4c
4r
=
8g
8cc
8cc
8b
=
4f
4d
=
8f
8b
8b
8a
=
4e
4c
=
8e
8g
8f
8e
=
4d
8.B
16B
=
8d
8f
8e
8d
=
4c
4c
==
*-
